img/icon/call-search.svg

<svg width="18" height="21" viewBox="0 0 18 21" fill="none" xmlns="http://www.w3.org/2000/svg">
<path d="M10.5812 7H14.9102C16.0082 7 16.8974 6.105 16.8974 5V3C16.8974 1.895 16.0082 1 14.9102 1H2.98718C1.88926 1 1 1.895 1 3V5C1 6.105 1.88926 7 2.98718 7H7.31624M10.4113 9.908V5.477C10.4113 4.661 9.75451 4 8.94374 4C8.13396 4 7.4772 4.661 7.4772 5.477V14L4.84817 12.642C4.25003 12.333 3.52173 12.448 3.04679 12.926C2.41785 13.559 2.44766 14.594 3.11138 15.19L7.90544 19.493C8.26909 19.819 8.74005 20 9.22791 20H13.8312C14.7622 20 15.569 19.349 15.7707 18.434L16.9521 13.083C17.2015 11.955 16.4513 10.85 15.3166 10.673L10.4113 9.908Z" stroke="#848E9F" stroke-width="1.5" stroke-linecap="round" stroke-linejoin="round"/>
</svg>

<svg width="18" height="21" fill="none" xmlns="http://www.w3.org/2000/svg"><path d="M10.581 7h4.33a1.993 1.993 0 0 0 1.986-2V3c0-1.105-.889-2-1.987-2H2.987A1.993 1.993 0 0 0 1 3v2c0 1.105.89 2 1.987 2h4.33m3.094 2.908V5.477C10.411 4.661 9.755 4 8.944 4c-.81 0-1.467.661-1.467 1.477V14l-2.629-1.358a1.541 1.541 0 0 0-1.801.284c-.63.633-.6 1.668.064 2.264l4.794 4.303c.364.326.835.507 1.323.507h4.603a1.99 1.99 0 0 0 1.94-1.566l1.181-5.351a1.999 1.999 0 0 0-1.635-2.41l-4.906-.765z" stroke="#848E9F" stroke-width="1.5" stroke-linecap="round" stroke-linejoin="round"/></svg>
